X:1
T:When Mary Hugged Her Newborn Son
T:When Mary Hugged Her Newborn Son
T:Thomas Tallis, 1560
T:Carolyn Winfrey Gillette, 2011
T:© 2011 Carolyn Winfrey Gillette Courtesy of the Cyber Hymnal™
C:Thomas Tallis, 1560
Z:© 2011 Carolyn Winfrey Gillette
Z:Courtesy of the Cyber Hymnal™
%%score ( 1 2 ) ( 3 4 )
L:1/8
Q:1/4=106
M:4/4
K:G
V:1 treble 
V:2 treble 
V:3 bass 
V:4 bass 
V:1
 [DG]2 | [DG]2 [DF]2 [B,G]2 [DG]2 | [EA]2 [DA]2 [DB]2 G2 | [Gc]2 [Fc]2 [GB]2 [DB]2 | %4
w: 1.~When|Ma- ry hugged her|new- born son, She|pon- dered all that|
w: 2.~When|shep- herds heard the|an- gel’s joy, They|went to find that|
w: 3.~When|wise men came with|gifts to share, They|saw young Je- sus|
w: 4.~God,|make us faith- ful,|hum- ble, wise To|know that Je- sus|
 [EA]2 [DA]2 [DG]2 [Gd]2 | [Ec]2 [FA]2 [GB]2 [GB]2 | [EA]2 [DA]2 [DG]2 [B,D]2 | %7
w: God had done. Could|she know all her|child would be— The|
w: ba- by boy. Could|they see there in|Beth- le- hem A|
w: play- ing there. Could|they be- hold in|one so small God’s|
w: chang- es lives. May|we be o- pen|to the way That|
 [CE]2 [CF]2 [B,G]2 [DB]2 | [CA]2 [A,A]2 [B,G]2 |] %9
w: life he’d bring hu-|man- i- ty?|
w: friend to out- casts|just like them?|
w: gift most pre- cious|of them all?|
w: he would change our|lives this day.|
V:2
 x2 | x8 | x6 G2 | x8 | x8 | x8 | x8 | x8 | x6 |] %9
V:3
 [G,B,]2 | [D,A,]2 [D,A,]2 [E,G,]2 [B,,G,]2 | [C,G,]2 [D,F,]2 [G,,G,]2 [B,,G,]2 | %3
 [A,,A,]2 [A,,A,]2 [G,,B,]2 G,2 | [G,C]2 [F,C]2 [G,B,]2 [B,,B,]2 | %5
 [C,A,]2 [D,A,]2 [G,,G,]2 [G,D]2 | [A,C]2 [F,A,]2 [G,B,]2 [G,,B,]2 | %7
 [C,A,]2 [A,,A,]2 [E,G,]2 [B,,D,]2 | [C,E,]2 [D,F,]2 [G,,G,]2 |] %9
V:4
 x2 | x8 | x8 | x6 G,2 | x8 | x8 | x8 | x8 | x6 |] %9

